svgs/regular/suitcase-rolling.svg

<svg xmlns="http://www.w3.org/2000/svg" viewBox="0 0 384 512"><!--! Font Awesome Pro 6.6.0 by @fontawesome - https://fontawesome.com License - https://fontawesome.com/license (Commercial License) Copyright 2024 Fonticons, Inc. --><path d="M144 56l0 72 96 0 0-72c0-4.4-3.6-8-8-8l-80 0c-4.4 0-8 3.6-8 8zM96 128l0-72c0-30.9 25.1-56 56-56l80 0c30.9 0 56 25.1 56 56l0 72 32 0c35.3 0 64 28.7 64 64l0 224c0 35.3-28.7 64-64 64l0 8c0 13.3-10.7 24-24 24s-24-10.7-24-24l0-8-160 0 0 8c0 13.3-10.7 24-24 24s-24-10.7-24-24l0-8c-35.3 0-64-28.7-64-64L0 192c0-35.3 28.7-64 64-64l32 0zM64 176c-8.8 0-16 7.2-16 16l0 224c0 8.8 7.2 16 16 16l256 0c8.8 0 16-7.2 16-16l0-224c0-8.8-7.2-16-16-16L64 176zm32 72c0-13.3 10.7-24 24-24l144 0c13.3 0 24 10.7 24 24s-10.7 24-24 24l-144 0c-13.3 0-24-10.7-24-24zm0 112c0-13.3 10.7-24 24-24l144 0c13.3 0 24 10.7 24 24s-10.7 24-24 24l-144 0c-13.3 0-24-10.7-24-24z"/></svg>

<svg xmlns="http://www.w3.org/2000/svg" viewBox="0 0 384 512"><!--! Font Awesome Pro 6.5.2 by @fontawesome - https://fontawesome.com License - https://fontawesome.com/license (Commercial License) Copyright 2024 Fonticons, Inc. --><path d="M144 56v72h96V56c0-4.4-3.6-8-8-8H152c-4.4 0-8 3.6-8 8zM96 128V56c0-30.9 25.1-56 56-56h80c30.9 0 56 25.1 56 56v72h32c35.3 0 64 28.7 64 64V416c0 35.3-28.7 64-64 64v8c0 13.3-10.7 24-24 24s-24-10.7-24-24v-8H112v8c0 13.3-10.7 24-24 24s-24-10.7-24-24l0-8c-35.3 0-64-28.7-64-64V192c0-35.3 28.7-64 64-64H96zM64 176c-8.8 0-16 7.2-16 16V416c0 8.8 7.2 16 16 16H320c8.8 0 16-7.2 16-16V192c0-8.8-7.2-16-16-16H64zm32 72c0-13.3 10.7-24 24-24H264c13.3 0 24 10.7 24 24s-10.7 24-24 24H120c-13.3 0-24-10.7-24-24zm0 112c0-13.3 10.7-24 24-24H264c13.3 0 24 10.7 24 24s-10.7 24-24 24H120c-13.3 0-24-10.7-24-24z"/></svg>
